static/img/undraw3.svg

<svg width="264" height="275" viewBox="0 0 264 275" fill="none" xmlns="http://www.w3.org/2000/svg">
<path d="M263.728 140.761C264.18 150.473 263.508 159.438 261.892 168.532C259.895 179.729 256.102 190.175 251.185 200.224C246.418 209.976 240.789 219.281 233.242 227.258C229.69 230.999 226.449 235.035 222.776 238.644C217.478 243.858 211.467 248.193 205.355 252.448C199.662 256.408 193.535 259.449 187.364 262.402C176.717 267.497 165.464 270.952 153.847 272.964C143.257 274.799 132.486 274.806 121.82 274.116C108.138 273.234 94.9261 269.972 82.1818 264.688C70.5091 259.85 59.8862 253.331 49.7389 245.926C49.1237 245.478 48.5949 244.901 48.0691 244.346C42.9733 238.951 36.8882 234.541 32.3082 228.638C28.1127 223.229 23.5688 218.027 19.9452 212.253C13.2529 201.585 8.06487 190.136 4.79851 177.924C3.48192 173.002 2.40725 167.996 1.58439 162.968C0.417365 155.835 -0.562063 148.655 0.373201 141.486C0.615012 141.251 0.738417 141.097 0.893015 140.988C1.04148 140.883 1.22216 140.753 1.3887 140.753C87.5204 140.679 173.653 140.615 259.785 140.56C260.909 140.559 262.043 140.672 263.728 140.761Z" fill="white"/>
<path d="M259.805 129.973C261.059 120.77 258.119 102.063 253.884 91.8129C253.101 101.575 253.362 125.735 254.286 129.973H259.805ZM249.499 129.993C249.71 129.195 249.89 128.838 249.89 128.479C249.92 113.366 250.041 98.2503 249.83 83.1397C249.79 80.4233 248.766 77.5292 247.522 75.0606C245.124 70.3252 242.404 65.7321 239.514 61.2756C236.985 57.361 234.035 53.7133 230.713 49.1976V129.993L249.499 129.993ZM225.445 129.958C225.606 129.083 225.796 128.539 225.796 127.994C225.816 101.15 225.796 74.307 225.857 47.4626C225.867 45.3824 225.295 43.835 223.759 42.4121C220.679 39.5401 217.839 36.4021 214.698 33.5873C212.35 31.477 209.7 29.6999 206.59 27.3196V129.958H225.445ZM201.483 129.964V23.9398C198.432 22.1666 195.524 20.3614 192.511 18.7568C189.363 17.079 186.112 15.5937 182.438 13.795V129.964H201.483ZM135.287 3.85364C134.349 13.5465 134.689 125.766 135.683 130.22C138.652 130.22 141.701 130.318 144.74 130.193C147.904 130.063 151.153 130.768 154.17 129.7V5.91403C147.964 4.93112 141.946 3.50477 135.287 3.85364ZM178.272 129.338V12.8419C171.923 9.49626 165.359 7.40212 158.016 6.65783C158.016 46.1952 158.015 85.6866 158.022 125.178C158.022 126.518 158.098 127.857 158.165 129.196C158.172 129.357 158.335 129.516 158.446 129.661C158.56 129.812 158.699 129.946 158.9 130.165C164.604 130.165 170.355 130.181 176.106 130.14C176.628 130.136 177.148 129.768 178.272 129.338ZM130.048 3.77377C106.136 4.21721 84.4908 10.5821 64.7581 22.8419C39.2956 38.661 21.7274 61.085 11.0774 89.0573C7.12761 99.4314 3.05245 124.064 4.54967 129.927H130.048V3.77377ZM0.0861457 133.62C0.506619 127.644 0.0319329 122.261 0.929044 116.692C2.01387 109.956 3.06851 103.244 4.71125 96.6207C7.05939 87.1477 10.8636 78.2197 15.5931 69.7633C19.2026 63.3118 23.3992 57.1483 27.7644 51.1705C32.7939 44.2835 38.7165 38.2165 45.192 32.5548C50.9781 27.4962 57.0292 22.9183 63.6302 19.1542C70.2241 15.3951 77.1271 12.1378 84.0573 9.02446C89.7541 6.46527 95.6375 4.30351 101.904 3.40873C106.204 2.79478 110.523 2.1921 114.752 1.22634C122.32 -0.502398 129.974 0.0641516 137.585 0.186096C152.115 0.418354 166.092 3.31907 179.724 8.61337C190.473 12.7881 200.379 18.25 209.67 24.9061C219.003 31.5954 227.241 39.4578 234.587 48.3678C241.421 56.6647 247.221 65.5556 251.787 75.2152C257.316 86.9119 261.571 99.0492 262.815 112.065C263.086 114.888 263.748 117.684 263.879 120.508C264.059 124.693 263.919 128.893 263.919 132.679C263.407 133.209 263.287 133.37 263.136 133.478C262.986 133.58 262.805 133.691 262.635 133.691C176.547 133.753 90.4635 133.807 4.38002 133.851C3.24607 133.852 2.11119 133.733 0.0861457 133.62Z" fill="white"/>
</svg>

<svg version="1.2" xmlns="http://www.w3.org/2000/svg" viewBox="0 0 264 275" width="264" height="275">
	<title>undraw3-svg</title>
	<defs>
		<linearGradient id="g1" x2="1" gradientUnits="userSpaceOnUse" gradientTransform="matrix(-158.505,274.538,-270.969,-156.444,211.238,0)">
			<stop offset="0" stop-color="#382d63"/>
			<stop offset="1" stop-color="#193e26"/>
		</linearGradient>
	</defs>
	<style>
		.s0 { fill: url(#g1) } 
	</style>
	<path id="Layer" fill-rule="evenodd" class="s0" d="m263.7 140.8c0.5 9.7-0.2 18.6-1.8 27.7-2 11.2-5.8 21.7-10.7 31.7-4.8 9.8-10.4 19.1-18 27.1-3.5 3.7-6.8 7.7-10.4 11.3-5.3 5.3-11.3 9.6-17.4 13.8-5.7 4-11.9 7-18 10-10.7 5.1-21.9 8.6-33.6 10.6-10.5 1.8-21.3 1.8-32 1.1-13.7-0.9-26.9-4.1-39.6-9.4-11.7-4.8-22.3-11.4-32.5-18.8-0.6-0.4-1.1-1-1.6-1.6-5.1-5.3-11.2-9.8-15.8-15.7-4.2-5.4-8.7-10.6-12.4-16.3-6.6-10.7-11.8-22.2-15.1-34.4q-2-7.4-3.2-14.9c-1.2-7.2-2.2-14.3-1.2-21.5 0.2-0.2 0.3-0.4 0.5-0.5 0.1-0.1 0.3-0.2 0.5-0.2q129.2-0.2 258.4-0.2c1.1 0 2.2 0.1 3.9 0.2zm-263.6-7.2c0.4-6-0.1-11.3 0.8-16.9 1.1-6.7 2.2-13.5 3.8-20.1 2.4-9.5 6.2-18.4 10.9-26.8 3.6-6.5 7.8-12.7 12.2-18.6 5-6.9 10.9-13 17.4-18.6 5.8-5.1 11.8-9.7 18.4-13.4 6.6-3.8 13.5-7.1 20.5-10.2 5.7-2.5 11.5-4.7 17.8-5.6 4.3-0.6 8.6-1.2 12.9-2.2 7.5-1.7 15.2-1.1 22.8-1 14.5 0.2 28.5 3.1 42.1 8.4 10.8 4.2 20.7 9.6 30 16.3 9.3 6.7 17.5 14.6 24.9 23.5 6.8 8.3 12.6 17.2 17.2 26.8 5.5 11.7 9.8 23.8 11 36.9 0.3 2.8 0.9 5.6 1.1 8.4 0.2 4.2 0 8.4 0 12.2-0.5 0.5-0.6 0.7-0.8 0.8-0.1 0.1-0.3 0.2-0.5 0.2q-129.1 0.1-258.2 0.2c-1.2 0-2.3-0.2-4.3-0.3zm249.4-3.6c0.2-0.8 0.4-1.2 0.4-1.5 0-15.1 0.1-30.2-0.1-45.4 0-2.7-1-5.6-2.3-8-2.4-4.8-5.1-9.4-8-13.8-2.5-3.9-5.5-7.6-8.8-12.1v80.8zm-24 0c0.1-0.9 0.3-1.5 0.3-2 0-26.8 0-53.7 0.1-80.5 0-2.1-0.6-3.7-2.1-5.1-3.1-2.9-5.9-6-9.1-8.8-2.3-2.1-5-3.9-8.1-6.3v102.7zm-24 0v-106.1c-3-1.7-5.9-3.5-8.9-5.1-3.2-1.7-6.4-3.2-10.1-5v116.2zm-66.2-126.1c-0.9 9.6-0.6 121.9 0.4 126.3 3 0 6 0.1 9.1 0 3.1-0.1 6.4 0.6 9.4-0.5v-123.8c-6.2-1-12.2-2.4-18.9-2zm43 125.4v-116.5c-6.4-3.3-12.9-5.4-20.3-6.1q0 59.3 0 118.5c0 1.3 0.1 2.7 0.2 4 0 0.2 0.1 0.3 0.3 0.5 0.1 0.1 0.2 0.2 0.4 0.5 5.7 0 11.5 0 17.2-0.1 0.5 0 1.1-0.3 2.2-0.8zm-48.2-125.5c-24 0.4-45.6 6.8-65.3 19-25.5 15.9-43.1 38.3-53.7 66.3-4 10.3-8 35-6.5 40.8h125.5zm129.7 126.2c1.3-9.2-1.7-27.9-5.9-38.1-0.8 9.7-0.5 33.9 0.4 38.1z"/>
</svg>
